X:620
T: Paddy's Return
M: 6/8
L: 1/8
R: Jig
K: D
B|AFD DFA|BdB BAF|ABA F2D|FEE E2B|
AFD DFA|BdB BAF|ABA F2E|1 FDD D2 :|2 FDD D2||
e|fdd dcd|fdd d2e|fef def|gfg eag|
fed B2d|A2d F2G|ABA F2E|1 FDD D2 :|2 FDD D2||
